server/website/public/icons/base/claude.svg

<svg width="48" height="48" viewBox="0 0 48 48" fill="none" xmlns="http://www.w3.org/2000/svg">
<path d="M9.41772 31.911L18.8597 26.6167L19.0177 26.1553L18.8597 25.9003H18.398L16.8182 25.8032L11.4228 25.6575L6.7443 25.4632L2.21165 25.2203L1.06937 24.9775L0 23.5689L0.109367 22.8647L1.06937 22.2211L2.44253 22.3425L5.48051 22.549L10.0375 22.8647L13.3428 23.0589L18.24 23.5689H19.0177L19.1271 23.2532L18.8597 23.0589L18.6532 22.8647L13.9382 19.6711L8.83443 16.2955L6.16101 14.3526L4.71494 13.3691L3.98582 12.4462L3.66987 10.4306L4.98228 8.98558L6.7443 9.10701L7.19392 9.22844L8.98025 10.6006L12.7959 13.5512L17.7782 17.2183L18.5073 17.8255L18.799 17.619L18.8354 17.4733L18.5073 16.9269L15.7975 12.0334L12.9053 7.0549L11.6172 4.99064L11.277 3.75209C11.1554 3.24209 11.0704 2.8171 11.0704 2.29497L12.5651 0.267139L13.3914 0L15.3843 0.267139L16.2228 0.9957L17.4623 3.82494L19.4673 8.28131L22.5782 14.3405L23.4896 16.1376L23.9757 17.8012L24.158 18.3112H24.4739V18.0197L24.7291 14.6076L25.203 10.4184L25.6648 5.02707L25.8228 3.50923L26.5762 1.68783L28.0709 0.704275L29.2375 1.26284L30.1975 2.63496L30.0638 3.52138L29.4927 7.22489L28.3747 13.0291L27.6456 16.9147H28.0709L28.557 16.429L30.5256 13.8184L33.8309 9.68986L35.2891 8.0506L36.9904 6.24134L38.084 5.37921H40.1499L41.6689 7.63774L40.9884 9.96914L38.8618 12.6648L37.0997 14.9476L34.5722 18.3476L32.9924 21.0675L33.1382 21.2861L33.5149 21.2497L39.2263 20.0354L42.3129 19.4769L45.9949 18.8454L47.6597 19.6226L47.842 20.4118L47.1858 22.0268L43.2486 22.9982L38.6309 23.9211L31.7529 25.5482L31.6678 25.6089L31.7651 25.7303L34.8638 26.0218L36.1884 26.0946H39.4329L45.4724 26.5439L47.0522 27.5882L48 28.8631L47.842 29.8346L45.4116 31.0731L42.1306 30.296L34.4749 28.4746L31.8501 27.8189H31.4856V28.0374L33.6729 30.1746L37.683 33.7931L42.7018 38.4559L42.957 39.6094L42.3129 40.5201L41.6324 40.423L37.2213 37.108L35.52 35.6145L31.6678 32.3724H31.4127V32.7124L32.2997 34.0116L36.9904 41.0544L37.2334 43.2158L36.8932 43.9201L35.678 44.3451L34.3413 44.1022L31.5949 40.253L28.7635 35.918L26.479 32.0324L26.1995 32.1902L24.8506 46.7007L24.2187 47.4414L22.7605 48L21.5453 47.0772L20.9013 45.5836L21.5453 42.6329L22.323 38.7837L22.9549 35.7238L23.5261 31.9231L23.8663 30.6603L23.842 30.5753L23.5625 30.6117L20.6947 34.5459L16.3322 40.4351L12.881 44.1265L12.0547 44.4543L10.6208 43.7136L10.7544 42.3901L11.5565 41.2122L16.3322 35.1409L19.2122 31.3767L21.0714 29.2031L21.0592 28.8874H20.9499L8.26329 37.1202L6.00304 37.4116L5.03089 36.5009L5.1524 35.0073L5.61418 34.5216L9.42987 31.8988L9.41772 31.911Z" fill="#D97757"/>
</svg>

<svg width="48" height="48" fill="none" xmlns="http://www.w3.org/2000/svg"><path d="M9.418 31.911l9.442-5.294.158-.462-.158-.255h-.462l-1.58-.097-5.395-.146-4.679-.194-4.532-.243-1.143-.242L0 23.567l.11-.703.96-.644 1.373.122 3.038.206 4.556.316 3.306.194 4.897.51h.778l.11-.316-.268-.194-.207-.194-4.715-3.194-5.104-3.375-2.673-1.943-1.446-.984-.73-.923-.315-2.015 1.312-1.445 1.762.121.45.121 1.786 1.373 3.816 2.95 4.982 3.667.73.608.291-.207.036-.146-.328-.546-2.71-4.894-2.892-4.978-1.288-2.064-.34-1.239c-.122-.51-.207-.935-.207-1.457L12.565.267 13.391 0l1.993.267.839.729 1.24 2.829 2.004 4.456 3.111 6.06.912 1.797.486 1.663.182.51h.316v-.291l.255-3.412.474-4.19.462-5.39.158-1.519.753-1.821 1.495-.984 1.166.559.96 1.372-.133.886-.571 3.704-1.118 5.804-.73 3.886h.426l.486-.486 1.969-2.61 3.305-4.13 1.458-1.638 1.701-1.81 1.094-.862h2.066l1.519 2.259-.68 2.331-2.127 2.696-1.762 2.283-2.528 3.4-1.58 2.72.146.218.377-.036 5.711-1.215 3.087-.558 3.682-.632 1.665.778.182.789-.656 1.615-3.937.971-4.618.923-6.878 1.627-.085.06.097.122 3.099.292 1.324.073h3.245l6.04.449 1.58 1.044.947 1.275-.158.972-2.43 1.238-3.281-.777-7.656-1.821-2.625-.656h-.364v.218l2.187 2.138 4.01 3.618 5.019 4.663.255 1.153-.644.911-.68-.097-4.412-3.315-1.701-1.493-3.852-3.243h-.255v.34l.887 1.3 4.69 7.042.243 2.162-.34.704-1.215.425-1.337-.243-2.746-3.849-2.831-4.335-2.285-3.886-.28.158-1.348 14.51-.632.741L22.76 48l-1.215-.923-.644-1.493.644-2.951.778-3.85.632-3.06.571-3.8.34-1.263-.024-.085-.28.037-2.867 3.934-4.363 5.89-3.451 3.69-.826.328-1.434-.74.133-1.324.803-1.178 4.775-6.071 2.88-3.764 1.86-2.174-.013-.316h-.11L8.264 37.12l-2.26.292-.972-.911.121-1.494.462-.485 3.816-2.623-.012.012z" fill="#D97757"/></svg>
